src/main/resources/icons/PhpIcons/icons/debug_listen_on.svg

<svg xmlns="http://www.w3.org/2000/svg" width="16" height="16" viewBox="0 0 16 16">
  <g fill="none" fill-rule="evenodd">
    <path fill="#6E6E6E" d="M3 1.14225476C2.41740381 1.48545176 2 2.41148431 2 3.5 2 4.58851569 2.41740381 5.51454824 3 5.85774524 2.84361054 5.94987148 2.67531771 6 2.5 6 1.67157288 6 1 4.88071187 1 3.5 1 2.11928813 1.67157288 1 2.5 1 2.67531771 1 2.84361054 1.05012852 3 1.14225476zM6 1.14225476C5.41740381 1.48545176 5 2.41148431 5 3.5 5 4.58851569 5.41740381 5.51454824 6 5.85774524 5.84361054 5.94987148 5.67531771 6 5.5 6 4.67157288 6 4 4.88071187 4 3.5 4 2.11928813 4.67157288 1 5.5 1 5.67531771 1 5.84361054 1.05012852 6 1.14225476zM9 1.14225476C8.41740381 1.48545176 8 2.41148431 8 3.5 8 4.58851569 8.41740381 5.51454824 9 5.85774524 8.84361054 5.94987148 8.67531771 6 8.5 6 7.67157288 6 7 4.88071187 7 3.5 7 2.11928813 7.67157288 1 8.5 1 8.67531771 1 8.84361054 1.05012852 9 1.14225476zM11 11L13 11 13 5 11 5 11 1 13 1C14.1045695 1 15 1.8954305 15 3L15 13C15 14.1045695 14.1045695 15 13 15L11 15 11 11z"/>
    <path fill="#59A869" d="M7.15555349,13 L7.15555349,13.2230772 C7.15555349,13.4437336 7.1175483,13.795241 7.06343921,14 L8.08571457,14 L8.08571457,15 L6.57130412,15 C6.09849371,15.5761231 5.38476901,15.9 4.57893001,15.9 C3.77309102,15.9 3.05936632,15.5761231 2.58655591,15 L1,15 L1,14 L2.09442082,14 C2.04031173,13.795241 2.00230653,13.4437336 2.00230653,13.2230772 L2.00230653,13 L1,13 L1,12 L2.00230653,12 L2.00230653,11.3153848 C2.00230653,11.2066463 2.02163121,11.105559 2.03515848,11 L1,11 L1,10 L2.36238967,10 C2.60845721,9.58475896 2.96789618,9.29068725 3.40141308,9.06748724 L2.49637409,8.17468721 L3.17982346,7.5 L4.4784417,8.78196928 C4.51258196,8.78069749 4.50871702,8.77561031 4.54285729,8.77561031 C4.55509625,8.77561031 4.6014754,8.78069753 4.61371436,8.78133343 L5.90589111,7.5 L6.58934049,8.17468721 L5.71006772,9.04268724 C6.16419761,9.26461546 6.54038464,9.56949742 6.79547036,10 L8.08571457,10 L8.08571457,11 L7.12270155,11 C7.13622882,11.105559 7.15555349,11.2066463 7.15555349,11.3153848 L7.15555349,12 L8.08571457,12 L8.08571457,13 L7.15555349,13 Z M3.5,11 L3.5,12 L5.59,12 L5.59,11 L3.5,11 Z M3.5,13 L3.5,14 L5.59,14 L5.59,13 L3.5,13 Z"/>
  </g>
</svg>

<svg xmlns="http://www.w3.org/2000/svg" width="16" height="16" viewBox="0 0 16 16"><rect id="frame" width="16" height="16" fill="none"/><g fill="none" fill-rule="evenodd"><path fill="#6E6E6E" d="M3 1.142c-.583.343-1 1.27-1 2.358 0 1.089.417 2.015 1 2.358A.978.978 0 0 1 2.5 6C1.672 6 1 4.88 1 3.5S1.672 1 2.5 1c.175 0 .344.05.5.142zm3 0c-.583.343-1 1.27-1 2.358 0 1.089.417 2.015 1 2.358A.978.978 0 0 1 5.5 6C4.672 6 4 4.88 4 3.5S4.672 1 5.5 1c.175 0 .344.05.5.142zm3 0c-.583.343-1 1.27-1 2.358 0 1.089.417 2.015 1 2.358A.978.978 0 0 1 8.5 6C7.672 6 7 4.88 7 3.5S7.672 1 8.5 1c.175 0 .344.05.5.142zM11 11h2V5h-2V1h2a2 2 0 0 1 2 2v10a2 2 0 0 1-2 2h-2v-4z"/><path fill="#59A869" d="M7.156 13v.223c0 .22-.038.572-.093.777h1.023v1H6.57c-.473.576-1.186.9-1.992.9s-1.52-.324-1.992-.9H1v-1h1.094a3.68 3.68 0 0 1-.092-.777V13H1v-1h1.002v-.685c0-.108.02-.21.033-.315H1v-1h1.362c.246-.415.606-.71 1.04-.933l-.906-.892.684-.675 1.298 1.282c.035-.001.03-.006.065-.006l.07.005L5.907 7.5l.683.675-.879.868c.454.222.83.526 1.085.957h1.29v1h-.962c.013.106.033.207.033.315V12h.93v1h-.93zM3.5 11v1h2.09v-1H3.5zm0 2v1h2.09v-1H3.5z"/></g></svg>
